lib/brands/icons/google-adsense.svg

<svg xmlns="http://www.w3.org/2000/svg" fill="none" aria-hidden="true" viewBox="0 0 48 48"><g id="google-adsense-Icon"><g id="Group"><path id="Vector" fill="#FBBC04" d="M28.2254 17.6049C29.673 15.1272 28.8134 11.9605 26.3059 10.5294C23.7973 9.10031 20.5906 9.94748 19.143 12.4252C19.0792 12.5362 19.0192 12.6494 18.9631 12.7645L14.0692 21.1365C13.9609 21.3029 13.8608 21.4745 13.769 21.6505L8.68701 30.4204L17.7684 35.5106L22.8246 26.8148C22.9348 26.6495 23.0351 26.4779 23.1248 26.3007L28.0187 17.9277C28.0896 17.8229 28.1606 17.7159 28.2254 17.6049Z"/><path id="Vector_2" fill="#34A853" d="M17.8104 35.4839C16.3711 38.0017 13.1243 38.928 10.6311 37.4753C8.13688 36.0215 7.25167 32.8693 8.69206 30.3525C10.1324 27.8357 13.3505 26.9052 15.8447 28.358C18.3389 29.8117 19.2498 32.967 17.8104 35.4828"/><path id="Vector_3" fill="#4285F4" d="M37.4074 19.2622C34.9286 17.8336 31.7612 18.6796 30.3247 21.154L25.1399 30.113C23.7114 32.5822 24.5552 35.742 27.0245 37.1705C27.0289 37.1731 27.0334 37.1756 27.0378 37.1782C29.5172 38.6073 32.6855 37.7607 34.1216 35.2854L39.3053 26.3274C40.7336 23.8574 39.8891 20.6972 37.419 19.2689C37.4152 19.2667 37.4113 19.2644 37.4074 19.2622Z"/></g></g></svg>

<svg xmlns="http://www.w3.org/2000/svg" fill="none" aria-hidden="true" viewBox="0 0 48 48"><path fill="#FBBC04" d="M28.225 17.605c1.448-2.478.588-5.645-1.92-7.076-2.508-1.429-5.714-.582-7.162 1.896a5.637 5.637 0 0 0-.18.34l-4.894 8.372a6.19 6.19 0 0 0-.3.514l-5.082 8.77 9.081 5.09 5.057-8.696c.11-.166.21-.337.3-.514l4.894-8.373c.07-.105.142-.212.206-.323Z"/><path fill="#34A853" d="M17.81 35.484c-1.439 2.518-4.686 3.444-7.179 1.991-2.494-1.453-3.38-4.606-1.939-7.123 1.44-2.516 4.659-3.447 7.153-1.994 2.494 1.454 3.405 4.609 1.965 7.125"/><path fill="#4285F4" d="M37.407 19.262a5.192 5.192 0 0 0-7.082 1.892l-5.185 8.959a5.165 5.165 0 0 0 1.884 7.057l.014.008a5.192 5.192 0 0 0 7.084-1.893l5.183-8.958a5.166 5.166 0 0 0-1.886-7.058l-.012-.007Z"/></svg>
